/* XPM */
static char *a2583b5843e24eff85ebbf583f633d33Fb0Dw3b6JR48nMpO[] = {
/* columns rows colors chars-per-pixel */
"48 48 25 1 ",
"  c #63AB3D",
". c black",
"X c #010000",
"o c #000100",
"O c #000001",
"+ c #000101",
"@ c #E64538",
"# c #E64439",
"$ c #E64539",
"% c #E74539",
"& c #AD2E44",
"* c #AD2F44",
"= c #AD2E45",
"- c #AC2F45",
"; c #AD2F45",
": c #FF8932",
"> c #FE8833",
", c #FF8833",
"< c #FE8933",
"1 c #FF8933",
"2 c #FFC2A0",
"3 c #FEC2A1",
"4 c #FFC2A1",
"5 c #FEC3A1",
"6 c #FFC3A1",
/* pixels */
"                                                ",
"                                                ",
"                                                ",
"           ........................             ",
"           ........................             ",
"           ........................             ",
"        ...444444444444444444444444...          ",
"        ...444444444444444444444444...          ",
"        ...444444444444444444444444...          ",
"     ...$$$111111111111111111111111444...       ",
"     ...$$$111111111111111111111111444...       ",
"     ...$$$111111111111111111111111444...       ",
"  ...$$$111111444444444444444444111111444...    ",
"  ...$$$111111444444444444444444111111444...    ",
"  ...$$$111111444444444444444444111111444...    ",
"  ...$$$111;;;111111111111111111444111444...    ",
"  ...$$$111;;;111111111111111111444111444...    ",
"  ...$$$111;;;111111111111111111444111444...    ",
"  ...$$$111;;;111111111111111111444111444...    ",
"  ...$$$111;;;111111111111111111444111444...    ",
"  ...$$$111;;;111111111111111111444111444...    ",
"  ...$$$111;;;111111111111111111444111444...    ",
"  ...$$$111;;;111111111111111111444111444...    ",
"  ...$$$111;;;111111111111111111444111444...    ",
"  ...$$$111;;;111111111111111111444111444...    ",
"  ...$$$111;;;111111111111111111444111444...    ",
"  ...$$$111;;;111111111111111111444111444...    ",
"  ...$$$111;;;111111111111111111444111444...    ",
"  ...$$$111;;;111111111111111111444111444...    ",
"  ...$$$111;;;111111111111111111444111444...    ",
"  ...$$$111;;;111111111111111111444111444...    ",
"  ...$$$111;;;111111111111111111444111444...    ",
"  ...$$$111;;;111111111111111111444111444...    ",
"  ...$$$111111;;;;;;;;;;;;;;;;;;111111444...    ",
"  ...$$$111111;;;;;;;;;;;;;;;;;;111111444...    ",
"  ...$$$111111;;;;;;;;;;;;;;;;;;111111444...    ",
"     ...$$$111111111111111111111111444...       ",
"     ...$$$111111111111111111111111444...       ",
"     ...$$$111111111111111111111111444...       ",
"        ...$$$$$$$$$$$$$$$$$$$$$$$$...          ",
"        ...$$$$$$$$$$$$$$$$$$$$$$$$...          ",
"        ...$$$$$$$$$$$$$$$$$$$$$$$$...          ",
"           ........................             ",
"           ........................             ",
"           ........................             ",
"                                                ",
"                                                ",
"                                                "
};