/* XPM */
static char *c4b440a81ee242a1af1fb000e1369fd3baw4Jb1mHKDzf7qE[] = {
/* columns rows colors chars-per-pixel */
"48 48 209 2 ",
"   c #63AB3D",
".  c #1E1D1A",
"X  c #2B1B1A",
"o  c #251817",
"O  c #311F1E",
"+  c #21211D",
"@  c #34221E",
"#  c #3E2A1F",
"$  c #232522",
"%  c #2F2121",
"&  c #2C2A25",
"*  c #2C2D2A",
"=  c #352221",
"-  c #3B2524",
";  c #3B2C25",
":  c #312F2A",
">  c #3D2A2A",
",  c #332924",
"<  c #35332D",
"1  c #3C332C",
"2  c #393731",
"3  c #3C3A33",
"4  c #3B3C3B",
"5  c #343431",
"6  c #422D22",
"7  c #442C2B",
"8  c #482E2C",
"9  c #4B3326",
"0  c #41352B",
"q  c #4D332B",
"w  c #473528",
"e  c #513729",
"r  c #553A2C",
"t  c #5A3E2D",
"y  c #463131",
"u  c #4B3434",
"i  c #433C34",
"p  c #4D3E32",
"a  c #403E38",
"s  c #4B3F38",
"d  c #503737",
"f  c #553E31",
"g  c #5C3D33",
"h  c #513838",
"j  c #5C412E",
"k  c #44423B",
"l  c #4A463C",
"z  c #49483E",
"x  c #5D4231",
"c  c #5E4A35",
"v  c #52453C",
"b  c #55493D",
"n  c #564030",
"m  c #634432",
"M  c #634C36",
"N  c #6B4A36",
"B  c #654D39",
"V  c #6E4D39",
"C  c #684735",
"Z  c #724E3A",
"A  c #66513A",
"S  c #6C543C",
"D  c #74513C",
"F  c #7A533E",
"G  c #3D4140",
"H  c #4D4C42",
"J  c #464948",
"K  c #524E44",
"L  c #5C4D44",
"P  c #554C4F",
"I  c #535147",
"U  c #565449",
"Y  c #5B594E",
"T  c #58564C",
"R  c #5E5C51",
"E  c #575C5C",
"W  c #5C5E5D",
"Q  c #5A5154",
"!  c #6B5344",
"~  c #645449",
"^  c #63554B",
"/  c #755C42",
"(  c #795740",
")  c #615E52",
"_  c #675E59",
"`  c #664F41",
"'  c #7B6145",
"]  c #7D6548",
"[  c #646256",
"{  c #676558",
"}  c #696659",
"|  c #6D6B5D",
" . c #6D6257",
".. c #736959",
"X. c #6B6466",
"o. c #716F60",
"O. c #756C6C",
"+. c #756A6C",
"@. c #757364",
"#. c #797667",
"$. c #797768",
"%. c #7D7B6A",
"&. c #7A7867",
"*. c #7B7272",
"=. c #6C6B70",
"-. c #835E43",
";. c #816648",
":. c #8C6648",
">. c #856A4B",
",. c #8C6D4D",
"<. c #886246",
"1. c #936D4C",
"2. c #8D704F",
"3. c #97714F",
"4. c #8B7357",
"5. c #937453",
"6. c #9C7553",
"7. c #9C7C59",
"8. c #9A7B57",
"9. c #906E51",
"0. c #A17955",
"q. c #A17D5C",
"w. c #86766B",
"e. c #817E6E",
"r. c #897865",
"t. c #927D64",
"y. c #8A7C77",
"u. c #A4815D",
"i. c #82806F",
"p. c #9C856B",
"a. c #848271",
"s. c #888675",
"d. c #8E8C7A",
"f. c #898778",
"g. c #938D7C",
"h. c #94927F",
"j. c #AB8962",
"k. c #B18F66",
"l. c #807F87",
"z. c #8B8B8D",
"x. c #8B8386",
"c. c #9A8D8D",
"v. c #948888",
"b. c #9A9582",
"n. c #9D9B86",
"m. c #9F9D88",
"M. c #969480",
"N. c #8D8C94",
"B. c #959595",
"V. c #9C9C9C",
"C. c #96949C",
"Z. c #A49485",
"A. c #A99887",
"S. c #A09F89",
"D. c #AC9B8D",
"F. c #A69688",
"G. c #B09F90",
"H. c #AF9E90",
"J. c #A4A38D",
"K. c #A9A791",
"L. c #ACAB93",
"P. c #A0A09F",
"I. c #B3A192",
"U. c #B1AF97",
"Y. c #BDAA99",
"T. c #B6AB97",
"R. c #B5B29B",
"E. c #BAB79F",
"W. c #9A98A2",
"Q. c #A09EA8",
"!. c #A2A1A1",
"~. c #ACABAB",
"^. c #A8A6AB",
"/. c #BDBBA2",
"(. c #ADABB5",
"). c #B2B2B2",
"_. c #BCBCBC",
"`. c #B8B7B8",
"'. c #B0AFAE",
"]. c #C1BFA5",
"[. c #C3C1A7",
"{. c #C5C4A9",
"}. c #CBC9AE",
"|. c #C8C7AB",
" X c #CECDB0",
".X c #C2C1BF",
"XX c #D7D6B8",
"oX c #E0DEBF",
"OX c #BAB8C2",
"+X c #B9B7C1",
"@X c #C3C3C3",
"#X c #CCCCCB",
"$X c #D3D3D3",
"%X c #DCDBDB",
"&X c #D3D1CF",
"*X c #E5E2DE",
"=X c #E4E2C2",
"-X c #E0DFE0",
";X c #E4E4E4",
":X c #EBE9E6",
">X c #EBEBEB",
",X c #E9E7E8",
"<X c #F5F1EC",
"1X c #EFEFF1",
"2X c #F5F4F3",
"3X c #F9F7F4",
"4X c #FAF9F6",
"5X c #FEFEFE",
"6X c #F8F7F8",
/* pixels */
"                                        $ | L.L.J.f.K.@.4 z                                     ",
"                                  * ) { [.K.e.g.%.$.{ b.XX XI <                                 ",
"                              2 } h.T /.| #.$.#.@.@.} { $.} %.=XoXf.                            ",
"                          & [ S.R.R.{ %.%.%.#.| &.@.o.| { { %.U.%.h.J.%.                        ",
"                        K {. Xe.&.a.b.a o.#.&.$.$.) | [ Y 3 [.#.#.&.e.$.e.                      ",
"                    I ) H [.e.#.} $.J.k < { [ o.} { [ R < 3 d.@.| %.@.o.H s.                    ",
"                  f.L.XX$.Y &.%.| $.| ].< H ; 1 ; ; , H : ) m.i.} #.@.Y &.L.S.                  ",
"                l m.a.%.#.2 { @.} [ H 2 6 6 6 6 6 6 6 6 6 < Y | | @.) a J.@.d.d.                ",
"              2 @.J.#.%.o.$.2 | | 2 % % % @ X % X % X @ % % , 2 | | 4 XXo.@.&.J.U               ",
"            + a. X@.@.@.@.| T l 0 X !.!.P.t X !.!.!.M - V.V.V.M 0 3 %.n.@.o.%.| K.a.            ",
"            2 [ [ } @.@.| [ 4 w.e - ~.~.^.x O ~.~.~.B ; !.~.~.S 9 _ 4 } | | | } o.[..           ",
"          U s.2 U | [ | } < V.w.r - ).~.~.m @ ~.).'.S 6 !.~.)./ e X.V.2 { } | R Y k l           ",
"          H R.J.U U I Y b c S ..s f S ' >.^ f M / >.#.f M S ] #.s n B S b R ) | U.S.n.&         ",
"        H /.@.@.}.L.3 a 9 e r s $ m x m x 5 x m x m J ; m m x J $ t t r q 3 l U.e.%.m.H         ",
"        U /.@.| } K.k 6 X - > = x = - 7 7 q - 7 - 7 6 q 7 7 - - x = > > O 9 2 @.@.%.J.|         ",
"        XXs.$.o.%.} p 9 X.`.@XF.C - %X%X%XF - %X%X%X:.e %X%X%X:.C y.#X@Xg.e , [ %.#.@.XXI       ",
"      & |.%.@.{ } T M 9 O.@X#XD.N y ,X,X*X( 7 ;X;X,X,.r %X;X;X5.C y.$X#Xb.t O H o.) [ %.{.      ",
"      . | | | R o.H M q O..X#XI.Z u >X:X*X-.7 ;X>X:X1.f %X;X1X7.N x.$X#XF.t = H } Y [ | E..     ",
"      #.a.&.3 k I b ..i c / ,.p.~ D ,.7.j.w.D ;.8.j.F.! ;.5.u.F.~ ( >.2.r.v f p z 4 %.d.U.3     ",
"      n.%.i.}.[ < 0 4 + t m C L * F F F ( G D F F F E p F F F W * Z Z N b $ x 0 2 /.L.a.a.}     ",
"      S.&.s.%./.& X O e = 7 8 > Z 7 8 h h g 8 h 8 h q g h h 8 q Z 7 y y - x = = < R.@.o.e.[     ",
"      m.| &.@.[ < V.S r *.$X%XY.D 8 5X5X5X:.7 5X5X5X0.g 5X5X5X0.D c.,X;XI.m = _.< /.o.&.#.[     ",
"      U.@.%.@.$.2 V.S e *.&X%XY.D h 5X5X3X:.8 5X5X5X6.g 2X5X5Xu.Z c.,X;XI.m > _.k [.) #.| [     ",
"      n.{ Y [ } 2 B.S e *.#X$XY.D h 5X4X<X:.8 2X5X4X6.g :X3X5Xu.Z c.;X%XG.m > `.4 {.| | | I     ",
"      g.I #.R K < A  .i c / ,.p.~ ( ,.u.k.w.( >.7.k.A.! >.5.j.A.~ ( >.5.t.v g A < E.{ &.H H     ",
"      < 4 a < < < 9 4 + t m C L * F F F ( G D F F F E p F F F W * Z Z N b $ x t 2 2 < < < 2     ",
"       XXX[. X| < X O e = 7 8 - Z 7 8 h h g 8 h 8 h q g h h 8 q Z 7 y y - x = = < [.XX[.[.h.    ",
"      J.o.@.$.{ < B.V e *.#X%XY.Z 8 5X5X5X:.7 5X5X5X0.g 5X5X5X0.F c.,X;XI.m = _.2 [.| @.%.}     ",
"      m.@.@.o.[ 3 B.S e *.#X%XY.D d 5X5X3X:.8 5X5X5X6.g 2X5X5Xu.Z c.,X;XI.m > _.4 }.@.#.&.|     ",
"      h.| o.R | 2 B.S e *.@X&XY.D d 5X4X<X:.8 2X5X4X6.g :X3X5Xu.Z c.;X%XI.m > _.3 }.@.@.| R     ",
"      b.Y [ | #.< A  .i x / ,.p.~ D ,.u.k.w.D >.8.k.A.! >.5.j.A.~ ( >.5.t.v g A < }.} } R Y     ",
"      s.H [ | H < 6 4 . r m m L * F D F F G D F D F E p F F D W * Z V C b $ j r < n.R [ H U     ",
"      < 2 2 2 2 < X X 9 O > 7 - N 7 7 d d g 7 d 7 d q g d d 7 8 Z 7 y y - t = O < k < 2 2 <     ",
"      U.J.J.S.Y < B.M q *.#X$XI.V 7 5X5X5X<.7 5X5X5X6.g 5X5X5X6.D c.,X;XG.j = _.2 [.m.S.J.#.    ",
"      S.%.#.#.R 2 B.B 9 *.#X$XI.V u 5X5X3X<.7 5X5X5X6.g 2X5X5Xq.Z c.,X;XH.x > _.k [.| { $.[     ",
"      m.o.| #.| 2 B.B 9 O.@X#XI.V u 5X3X<X<.7 2X5X4X3.g :X3X5Xq.Z c.;X%XD.m > _.3 }.#.s.@.[     ",
"      n.i.| { } < c _ i n S ;.t.L V >.8.j.w.V ] 5.j.F.! ] 2.u.F.~ D ;.,.r.v r M < ].| @.o.I     ",
"      d.Y #.{ R < 6 4 . e t x L * Z Z D D G Z D Z D E p D D Z W * V C C b $ t r < [.[ | H Y     ",
"      M.H Y R l & o X 9 O > 7 - C 7 7 u u g 7 u 7 u q g u u 7 7 V > y y - t = O < S.) o.z H     ",
"      &.%.%.%.H 2 z.c 9 O.@X#XD.C 7 6X6X6X-.7 6X6X6X1.f 6X6X6X3.Z v.;X%XD.t = `.2 %.#.$.$.U     ",
"      d.) } } { 2 z.M 9 +._.@XA.C y 1X1X:X-.7 1X1X1X1.f ;X1X1X8.N v.%X$XF.j > ).a R.Y [ [ I     ",
"      a.U Y [ [ 3 z.c 9 X.'.`.Z.C y ,X;X%X-.7 -X,X;X1.f $X;X,X8.N x.#X#XZ.t > ~.3 R.Y R U K     ",
"      #.I H U K 2 x ) 0 r S ' r.L C ;.5.u.w.N ' 2.u.Z.` ' >.7.Z.~ S ' >.4.l r c < J.Y R Y 3     ",
"      } z z k z < # 4 . q r t b * C N V V G N Z N V E p V V N W * C m m v $ r e 2 J.z H H <     ",
"      } 2 l 3 k & o X 6 X - > = m - 7 y y r 7 y 7 y 8 r y y 7 7 C - 7 7 = r @ O < g.2 2 3 <     ",
"      z * 2 2 < < =.j 6 Q N.C.y.m > OXOXOX( 6 OXOXOX,.r +XOXOX1.N O.(.^.y.r @ z.< [ 2 2 < *     ",
"      2 < < 2 2 2 X.n 6 P x.N.w.m 8 (.(.(.( 7 (.(.(.,.r ^.(.(.9.C +.Q.W.w.t - l.4 < : < : <     ",
"                                                                                                "
};