/* XPM */
static char *_5b4029ee1e2404ed2e1fcabf95703a4BRH7lStIBwIGzsio[] = {
/* columns rows colors chars-per-pixel */
"48 48 167 2 ",
"   c #245C35",
".  c #275D3D",
"X  c #2A5D3D",
"o  c #377B24",
"O  c #397D27",
"+  c #3B7E2C",
"@  c #296337",
"#  c #24603C",
"$  c #2B633C",
"%  c #377E32",
"&  c #3A7D34",
"*  c #34733C",
"=  c #377E38",
"-  c #3C7D3C",
";  c #407E3F",
":  c #245B43",
">  c #2A5D44",
",  c #25564B",
"<  c #2C554D",
"1  c #255F49",
"2  c #2B5D4B",
"3  c #305E41",
"4  c #265656",
"5  c #2B5751",
"6  c #2C5A52",
"7  c #2D5B58",
"8  c #305752",
"9  c #305953",
"0  c #276244",
"q  c #2D6541",
"w  c #2C6248",
"e  c #357343",
"r  c #377A45",
"t  c #3C7B43",
"y  c #36724C",
"u  c #3B744D",
"i  c #3D7B4B",
"p  c #2A6156",
"a  c #316451",
"s  c #3C6F5E",
"d  c #377254",
"f  c #3F7555",
"g  c #3E7A53",
"h  c #3E7558",
"j  c #315A60",
"k  c #3E6E60",
"l  c #407E44",
"z  c #417C4B",
"x  c #417D53",
"c  c #41725C",
"v  c #447B5C",
"b  c #487D5F",
"n  c #3C8127",
"m  c #3E822B",
"M  c #3E8132",
"N  c #3E813D",
"B  c #40852A",
"V  c #43882F",
"C  c #418535",
"Z  c #448933",
"A  c #498D35",
"S  c #42853B",
"D  c #46893B",
"F  c #4D9234",
"G  c #4C913C",
"H  c #569D35",
"J  c #50953B",
"K  c #549A3D",
"L  c #589E3C",
"P  c #5FA935",
"I  c #5EA63B",
"U  c #5FA93B",
"Y  c #62AC2F",
"T  c #63AC36",
"R  c #60A73D",
"E  c #63AB3D",
"W  c #69AD3D",
"Q  c #66B03C",
"!  c #3E8342",
"~  c #3C814A",
"^  c #428443",
"/  c #468840",
"(  c #4A8C44",
")  c #44834A",
"_  c #49864A",
"`  c #4E9143",
"'  c #519543",
"]  c #569A44",
"[  c #5B9F43",
"{  c #53954D",
"}  c #579C4B",
"|  c #5A9E4B",
" . c #468050",
".. c #559653",
"X. c #5B9950",
"o. c #5EA443",
"O. c #5EA944",
"+. c #5EA34C",
"@. c #5FA84F",
"#. c #5EA352",
"$. c #61A744",
"%. c #63AA42",
"&. c #69AD45",
"*. c #61A64C",
"=. c #6AA14E",
"-. c #64AB4B",
";. c #65AA48",
":. c #64AC49",
">. c #64AF4A",
",. c #63AA4C",
"<. c #62A84F",
"1. c #63A84F",
"2. c #64A94C",
"3. c #65AA4D",
"4. c #64AB4D",
"5. c #67AA4D",
"6. c #66AB4E",
"7. c #66AC4C",
"8. c #65AC4E",
"9. c #65AF4E",
"0. c #64AA4A",
"q. c #68AE4B",
"w. c #68AE4C",
"e. c #68AD4C",
"r. c #66B041",
"t. c #67B045",
"y. c #68B040",
"u. c #69B143",
"i. c #68B146",
"p. c #69B143",
"a. c #69B149",
"s. c #60A151",
"d. c #63A750",
"f. c #61A455",
"g. c #63A754",
"h. c #64A456",
"j. c #63A553",
"k. c #69A352",
"l. c #63A951",
"z. c #64AA52",
"x. c #66AA53",
"c. c #67AC51",
"v. c #67AC53",
"b. c #63A855",
"n. c #65AA53",
"m. c #68AA50",
"M. c #68AD52",
"N. c #69AE53",
"B. c #68AC51",
"V. c #62A15B",
"C. c #61A35B",
"Z. c #61A558",
"A. c #62A558",
"S. c #63A659",
"D. c #65A45D",
"F. c #65A45A",
"G. c #63A858",
"H. c #65A858",
"J. c #67A95F",
"K. c #65AA5A",
"L. c #6AAE59",
"P. c #6AB155",
"I. c #5F9F63",
"U. c #63A460",
"Y. c #67A566",
"T. c #67A660",
"R. c #67A962",
/* pixels */
"E $.^ i r U.<.$.%.$.%.;.;.$.E T E E E E $.$.$.$.$.$.E E E E $.$.E $.%.%.E E E E E E $.$.%.%.$.%.",
"P o.^ ) ^ A.$.I $.E %.%.;.%.W W E E E E E E $.$.$.$.E E E E E $.%.$.%.$.%.E %.E E E $.$.$.$.%.%.",
"r.o.S % + K $.y.E E T E $.$.E R E E E E E E E E E E E E E E E $.2.<.M.*.;.I $.%.E E E T E E E E ",
"E %.<.<.:.y.E T T T T T %.%.%.%.E E E E E E E E E E E E E E E %.] m + Z v.w.q.I E E T T T T T T ",
"%.$.$.E T T T E E E T T E E E E E $.$.$.E E E E E E E E E E E %.] M m A <.o.%.%.$.E T T T T T T ",
"E E %.E T T T %.<.o.$.%.t.%.%.:.$.$.$.$.$.E E E E E E E E E $.%.[ M O A 2.;.;.$.$.E E T T T T T ",
"E %.$.;.T T $.z.^ N C K O.O.O.$.%.%.%.$.$.$.E E E E E E $.$.$.$.;.$.$.%.%.o.$.:.%.$.$.E E %.%.$.",
"T :.2.7.P E %.b.) t N ] 7.:.O.%.%.%.%.%.%.$.$.E $.E E E E $.$.$.$.:.:.$.E %.$.R %.$.$.$.%.%.%.%.",
"T %.%.$.E P %.<.D = S } l.;.$.E o.2.;.%.%.$.E %.$.$.E E E E E E E E E E E E E E E $.$.$.%.%.%.%.",
"T E E I E T i.:.@.G.A.( + m H %.2.J n n K %.$.$.E $.E E E E E E T T T T T T E E E E $.$.$.$.$.$.",
"T T E E Q T T E %.M.H.D & C [ $.<.G O m K $.%.:.$.E E E E E E E E E E E E E E E E E E E E E E E ",
"P %.o.7.:.E T %.$.#.V._ z l X.h.A.' + m ] *.%.$.$.E E E E E E E E E %.E $.E E E E T T T T E E T ",
"%.$.N N + L R 2.( z x q $   u z - { A.H.l.*.$.%.$.E E E E E $.$.$.$.$.%.E E E E E E T T T T T T ",
"U 7.! t % z.m.s.) f h w 2 2 s h ) ..V.f.b.v.7.%.$.E E E E E $.$.$.$.$.$.%.E E E E E E E E T T T ",
"E o.C % M | D.Y. .v v a , 5 k b t ..R.J.f.+.$.;.$.E E E E E $.$.$.$.$.$.E E $.$.$.$.$.$.E $.E E ",
"%.%.$.z.+.D - z $ . : 2 7 7 5 : @ * t - & M Z F %.$.E E T T E E E $.E E E E E E $.$.$.$.E E E E ",
":.I :.7.<.D t z q w 2 2 6 7 7 6 : y g i i r S ' <.%.$.E T T T E $.$.$.E E E E E E %.E %.T E T T ",
"%.U %.$.o.Z S z @ $ . . X X > > @ e t t l ^ S ' $.%.E E T T E E $.$.$.E E E E E %.E E E E E T T ",
"T P T E :.o.*.f.F.F.h.k.k.h.D.F.*.z.z.<.z.*.o.%.E T T T E E $.$.$.$.E E E E E E $.$.%.%.%.E E E ",
"T T T T %.:.5.5.;.&.E E E E ;.;.E Q E E %.E E E T T T T $.$.%.%.$.E E E E E E %.o.$.:.:.;.o.$.$.",
"E E T T R $.$.o.%.E T T T E E E T T T T T T T T T T T E $.$.%.%.$.E E T E E $.$.:.;.*.+.*.2.M.w.",
"E %.T E E :.:.;.%.%.T T T T E E E T T T T T T T T T T E $.%.%.%.$.E T T E E $.%.%.K B m Z +.*.+.",
"%.:.E T T T R E $.%.E T T T T E $.$.%.%.$.$.:.$.E E E E $.$.%.$.E E E E E E $.%.w.o.n n B z.v.2.",
"$.%.T Q T T T %.E %.E T T T T E ;.$.$.;.%.%.%.R $.E E E %.%.$.$.E E E E E E $.%.$.o.B B n 2.2.$.",
";.:.T T T T T T E U E E T T P E %.%.%.%.%.%.E E E E E E E E E E $.E E E E E $.$.%.%.%.%.$.%.%.%.",
"o.$.T T T T T E %.E E T T %.$.%.$.%.$.E E E E E E E E E E E E E E E $.E E E E $.%.%.%.%.$.$.$.$.",
"%.:.%.E E E $.%.$.$.%.$.:.P.b.f.$.:.a.%.E E E T E E E E E E E E %.%.%.E E E E E E E $.%.$.$.E T ",
"$.I E E E $.%.:.:.%.%.E o.+.( & m F I R E E E E E E E E $.E T E %.%.E E E E E E E E $.$.$.E T T ",
":.E E E T %.$.$.E E E %.:.z.` & C K 7.q.%.$.$.E %.$.$.$.$.E E E $.$.$.E E E E E E $.$.$.E T T T ",
"$.o.&.%.T %.E E %.E E T $.o.G M C J o.%.R E %.%.E $.$.$.$.$.E E $.$.E E E E E E E E $.$.E E T E ",
"S S +.$.I %.%.%.%.R E E W &.$.$.o.;.:.%.E T T T E %.$.$.$.$.E E $.$.E E E T E E E $.$.$.$.E E E ",
"- N s.M.$.%.E E %.E E E E E T &.%.%.E E T T E T E E $.E E $.%.%.$.$.E E T E %.%.%.%.$.$.$.$.%.%.",
"& M <.;.%.%.$.%.$.$.E T T E $.$.%.%.E E E $.$.$.E T T T i.%.<.z.o.a.E E E R m.s.F.k.o.$.%.+.n.b.",
"L.<.:.%.I E I %.%.$.E T T E $.$.%.E T T E $.%.%.%.E T T I J C + G o.R %.y.%.| S & C %.a.<.C % & ",
"$.$.T T T i.%.%.:.%.E E E E %.E E T T T E $.%.%.$.$.$.:.7.} ^ = G 2.;.$.E :.} + C M 2.$.@.% = ) ",
"<.w.E T E $.$.*.%.$.E E $.$.E T T T T T E E %.%.:.:.$.$.o.' S & D o.;.$.$.:.o.V m C <.+.T.) z u ",
"- / o.%.$.Z C M o.$.E $.%.%.T T E $.$.E $.$.%.%.$.E T E :.;.g.g.2.q.E P P T %.$.%.o.D ; i . 6 5 ",
"g t #.z.b.+ & C o.E E %.%.$.T T $.%.$.$.$.$.$.$.E E T T E %.*.2.$.I T Q i.%.U O.$.#.- x f > 7 j ",
"v i D.H.g.D M m I T T E %.%.$.%.E E T T E E T T T T T T E $.$.%.&.T E $.@.#.l.K.J.I.x v c 2 < 9 ",
"1 # t & S | b.2.$.T T E E $.$.%.E E E E E E T T T T T T E %.$.$.T T %.K S N = N t u 2 , 6 2 < 8 ",
"p : x t - V.F.<.%.$.T T T E $.$.%.$.$.$.%.E T T T T T T E E %.E T T :.} ! r ~ i x d p 4 5 6 8 5 ",
"0 # i - C +.z.2.%.$.E T T T E $.;.$.*.$.%.$.E E T T T T T E E E E I o.] ! t ! - t e w > > 3 3 X ",
"f.g.v.%.I %.%.$.%.$.E T T T E %.g.` + M ' 2.q.:.$.E E E E T T T y.%.:.7.@.@.:.$.a.;.k.s.k.k.k.=.",
"$.%.E T T T E %.$.$.E T T T E %.+.` M C ' +.%.I $.$.$.%.$.E E T T P $.%.%.$.E T T T T E %.W W W ",
"%.:.T T T P $.%.%.%.E T E T T E ;.F o + K 7.a.%.$.$.%.$.$.$.$.E Q T %.:.$.%.E T E T E E E E T T ",
"o.%.P T T E %.;.$.E E E $.$.E E %.;.7.7.;.$.E E E $.%.$.$.$.$.E T T E $.%.E %.%.$.E E T E E T T ",
"z.;.T T T E $.$.E T T $.%.%.$.$.%.$.$.%.%.$.T T T T $.%.%.$.T T T E $.$.E R R %.%.%.T E %.$.%.%.",
"g.$.T Y T E %.$.E T T $.$.$.%.$.E E %.:.%.E T T T T E %.$.E T T T E $.$.E E %.q.%.%.T E %.$.O.O."
};