/* XPM */
static char *out[] = {
/* columns rows colors chars-per-pixel */
"48 48 202 2 ",
"   c #060A1D",
".  c #030A25",
"X  c #050F29",
"o  c #0B1329",
"O  c #151B2D",
"+  c #161D31",
"@  c #191F31",
"#  c #1B202F",
"$  c #1C2334",
"%  c #1D273B",
"&  c #1E283D",
"*  c #262834",
"=  c #21273A",
"-  c #252A3C",
";  c #2A2E3E",
":  c #2D313A",
">  c #33323B",
",  c #38383F",
"<  c #1F2E42",
"1  c #1E3449",
"2  c #232C43",
"3  c #262D47",
"4  c #2B3143",
"5  c #253648",
"6  c #2A334D",
"7  c #3B3740",
"8  c #3C3B43",
"9  c #363948",
"0  c #353B4B",
"q  c #253350",
"w  c #2B3552",
"e  c #2E3956",
"r  c #333C59",
"t  c #423E43",
"y  c #3B414D",
"u  c #264857",
"i  c #2B4A5D",
"p  c #344557",
"a  c #2D525C",
"s  c #274560",
"d  c #2D4F61",
"f  c #384567",
"g  c #2D5261",
"h  c #375867",
"j  c #3B5775",
"k  c #36636A",
"l  c #386776",
"z  c #494547",
"x  c #444449",
"c  c #554E4A",
"v  c #5D544C",
"b  c #464958",
"n  c #40505E",
"m  c #595958",
"M  c #63594F",
"N  c #655953",
"B  c #645A52",
"V  c #676256",
"C  c #6B6155",
"Z  c #73615B",
"A  c #74695B",
"S  c #786859",
"D  c #495465",
"F  c #545764",
"G  c #555A64",
"H  c #42567B",
"J  c #5F6269",
"K  c #476F7F",
"L  c #61636B",
"P  c #737163",
"I  c #7F7D6B",
"U  c #636874",
"Y  c #6E717B",
"T  c #767676",
"R  c #8B775D",
"E  c #887866",
"W  c #927E65",
"Q  c #957B6A",
"!  c #8F7D72",
"~  c #8B846C",
"^  c #9A836A",
"/  c #8B8578",
"(  c #9B997E",
")  c #A78D6C",
"_  c #A8916E",
"`  c #A88B72",
"'  c #AB9373",
"]  c #B29974",
"[  c #B99A79",
"{  c #C5A87C",
"}  c #CAAB7E",
"|  c #3C6A84",
" . c #396F84",
".. c #3B7589",
"X. c #3E7B91",
"o. c #436A88",
"O. c #407C82",
"+. c #427D94",
"@. c #6C7A86",
"#. c #787B85",
"$. c #3F8698",
"%. c #3E899A",
"&. c #46858B",
"*. c #448897",
"=. c #4B9292",
"-. c #44939E",
";. c #4A979F",
":. c #509D9C",
">. c #7F8188",
",. c #629696",
"<. c #7B9A91",
"1. c #51A19F",
"2. c #6FA09C",
"3. c #448FA0",
"4. c #4591A2",
"5. c #4E9DA1",
"6. c #4EA0A4",
"7. c #56AAA7",
"8. c #56ACA9",
"9. c #5AB4AD",
"0. c #5CB8B1",
"q. c #7BC0AD",
"w. c #82858E",
"e. c #918E8D",
"r. c #8B9D8B",
"t. c #9C9C83",
"y. c #868993",
"u. c #878A94",
"i. c #898C95",
"p. c #94969E",
"a. c #A59E8F",
"s. c #8AA898",
"d. c #ADAA8A",
"f. c #B1A380",
"g. c #979AA2",
"h. c #999BA3",
"j. c #9EA0A9",
"k. c #80B7A5",
"l. c #A2A4AD",
"z. c #A7A8AF",
"x. c #A8A8AD",
"c. c #B4B3A7",
"v. c #A1A9B0",
"b. c #ACAEB4",
"n. c #AEB0B6",
"m. c #63AB3D",
"M. c #63AB3D",
"N. c #CCAF80",
"B. c #CDB384",
"V. c #D4B482",
"C. c #D9B682",
"Z. c #D5B987",
"A. c #DBBA86",
"S. c #DBBD89",
"D. c #C7B999",
"F. c #E0BE87",
"G. c #CBBDAB",
"H. c #D0C494",
"J. c #DBC493",
"K. c #D7C698",
"L. c #E4C38C",
"P. c #E3CA95",
"I. c #E2CC9A",
"U. c #F3DD9F",
"Y. c #D2C5A9",
"T. c #D7CAB5",
"R. c #E3CDA6",
"E. c #E5D9A3",
"W. c #EBDBA5",
"Q. c #ECDEAA",
"!. c #E7DBBB",
"~. c #EBE1AC",
"^. c #F1E2AF",
"/. c #EEE0BC",
"(. c #F5E8B3",
"). c #F1E5B9",
"_. c #F7F4B6",
"`. c #BABCC2",
"'. c #C5C6CA",
"]. c #C6C8CD",
"[. c #C9CACD",
"{. c #D1CDC9",
"}. c #CACCD0",
"|. c #D2D3D6",
" X c #63AB3D",
".X c #63AB3D",
"XX c #63AB3D",
"oX c #63AB3D",
"OX c #63AB3D",
"+X c #63AB3D",
"@X c #63AB3D",
"#X c #63AB3D",
"$X c #63AB3D",
"%X c #63AB3D",
"&X c #63AB3D",
"*X c #63AB3D",
"=X c #63AB3D",
"-X c #63AB3D",
";X c #63AB3D",
":X c #63AB3D",
">X c #63AB3D",
",X c #63AB3D",
/* pixels */
",X,X,X,X,X,X,X,X,X,X,X,X,X,X,X,X,X,X,X,X,X,X,X,X,X,X,X,X,X,X,X,X,X,X,X,X,X,X,X,X,X,X,X,X,X,X,X,X",
",X,X,X,X,X,X,X,X,X,X,X,X,X,X,X,X,X,X,X,X,X,X,X,X,X,X,X,X,X,X,X,X,X,X,X,X,X,X,X,X,X,X,X,X,X,X,X,X",
",X,X,X,X,X,X,X,X,X,X,X,X,X,X,X,X,X,X,X,X,X,X,X,X,X,X,X,X,X,X,X,X,X,X,X,X,X,X,X,X,X,X,X,X,X,X,X,X",
",X,X,X,X,X,X,X,X,X,X,X,X,X,X,X,X,X,X>X,X,X,X,X,X,X,X,X,X,X,X,X,X,X,X,X,X,X,X,X,X,X,X,X,X,X,X,X,X",
",X,X,X,X,X,X,X,X,X,X,X,X,X,X,X,X,X%X X X:X,X,X,X,X,X,X,X,X,X,X,X,X,X,X,X,X,X,X,X,X,X,X,X,X,X,X,X",
",X,X,X,X,X,X,X,X,X,X,X,X,X,X>X:Xl.0 K n F p.&X,X,X,X,X,X,X,X,X,X,X,X,X,X,X,X,X,X,X,X,X,X,X,X,X,X",
",X,X,X,X,X,X,X,X,X,X,X,X,X,X,Xw.$ g 4.9.1.k p `.>X,X,X,X,X,X,X,X,X,X,X,X,X,X,X,X,X,X,X,X,X,X,X,X",
",X,X,X,X,X,X,X,X,X,X,X,X,X:Xi.<  .4.8.8.;.9.9.l v.:X,X,X,X,X,X,X,X,X,X,X,X,X,X,X,X,X,X,X,X,X,X,X",
",X,X,X,X,X,X,X,X,X,X,X,X,X'.= j *.$.7.8.0.5.7.9.l n.,X,X,X,X,X,X,X,X,X,X,X,X,X,X,X,X,X,X,X,X,X,X",
",X,X,X,X,X,X,X,X,X,X,X,X,Xm.4 o. .1 O < &.0.O.:.:.@.,X,X,X,X,X,X,X,X,X,X,X,X,X,X,X,X,X,X,X,X,X,X",
",X,X,X,X,X,X,X,X,X,X,X,X,Xm.6 +.l f p 2 O l 6.u =.j >X,X,X,X,X,X,X,X,X,X,X,X,X,X,X,X,X,X,X,X,X,X",
",X,X,X,X,X,X,X,X,X,X,X,X,X%X; j o.j H r # $ &.g l p ;X,X,X,X,X,X,X,X,X,X,X,X,X,X,X,X,X,X,X,X,X,X",
",X,X,X,X,X,X,X,X,X,X,X,X,X,X'.= 3 w 3 b ,Xb h q j D ,X,X,X,X,X,X,X,X,X,X,X,X,X,X,X,X,X,X,X,X,X,X",
",X,X,X,X,X,X,X,X,X,X,X,X,X,X,X|.g.#.i.h.x.9 i 1 i F ].,X,X,X,X,X,X,X,X,X,X,X,X:X,X,X,X,X,X,X,X,X",
",X,X,X,X,X,X,X,X,X,X,X,X,X,X,X,X,X,XY E ! e e = G a.F z.,X,X,X,X,X,X,X,X,X,X*XR.-X,X,X,X,X,X,X,X",
",X,X,X,X,X,X,X,X,X,X,X,X,X,X,X,X:XU = L T.-X*X$X$XT.x 0  X,X,X,X,X,X,X,X,X+XS.D.$X,X,X,X,X,X,X,X",
",X,X,X,X,X,X,X,X,X,X,X,X,X,X,X,X].+ Z Q H.(.^./.oXOXP.W b.,X,X,X,X,X,X,X{.G.,X>. X>X,X,X,X,X,X,X",
",X,X,X,X,X,X,X,X,X,X,X,X,X,X,X,Xw.> Q N.I.^.).).@X'.!.J.Y ,X,X,X,X,X,X,X/ XX-X! .X,X,X,X,X,X,X,X",
",X,X,X,X,X,X,X,X,X,X,X,X,X,X,X:XU z ` N.A.R.U.Q.).m W ^.m n.,X,X,X,X,XG.!.+XU.T  X,X,X,X,X,X,X,X",
",X,X,X,X,X,X,X,X,X,X,X:X,X,X,X.Xb Z ` B.V.A.I.Q.=XY : P./ w.,X,X,X,X|.8 oXR.S.T %X>X,X,X,X,X,X,X",
",X,X,X,X,X,X,X,X,X,X#XJ T ;X,X`.; Q [ C.C.F.P._.@XY o ' f.9 ,X,X,X>X@.( Q.A.m l.,X,X,X,X,X,X,X,X",
",X,X,X,X,X,X,X,X,X,Xm.= S T %Xm.@ t Q { ] N N P T - O @ @ $ %X,X,X}.G _.A.' 4 :X,X,X,X,X,X,X,X,X",
",X,X,X,X,X,X,X,X,X,XM.% b ~ m i.4 7 Q } B.f.P 7 , * O > ( ; b.,X,Xi.t.I N.v n.,X,X,X,X,X,X,X,X,X",
",X,X,X,X,X,X,X,X,X,Xm.i l m ` x O + Q ` } C.P.E.!.p.  W oXP b.,X:XV d.c [ L >X,X,X,X,X,X,X,X,X,X",
",X,X,X,X,X,X,X,X,X,Xn.d 4.X.m ] ^ t : Z { V.V.E.~.c.  K.).V F }.u.~ E ' A `.,X,X,X,X,X,X,X,X,X,X",
",X,X,X,X,X,X,X,X,X:Xm.d 4.%.<._ C E ~ ~ * } V.P.~.Y.e.W.H.O k h 8 ^ V B.J %X,X,X,X,X,X,X,X,X,X,X",
",X,X,X,X,X,X,X,X,X,Xm.g 4.-.s.L.{ _ c E   7 S J._.oX+XI.v g l 1 ) B E v v.,X,X,X,X,X,X,X,X,X,X,X",
",X,X,X,X,X,X,X,X,X,Xm.d 3.%.q.W.Z.L.C E . @ o $ ~ H.Q.P q a 6.5 M t Z o '.:X,X,X,X,X,X,X,X,X,X,X",
",X,X,X,X,X,X,X,X,X,Xb.m s.*.5.J.J.F.R R X j f 3 + * , q j < i  .s 4 ; w D |.,X,X,X,X,X,X,X,X,X,X",
",X,X,X,X,X,X,X,X,X>Xn.A L.H.k.N.} L._ ~ X o.X.| f w w o.j O v y q f w = 0 ].,X,X,X,X,X,X,X,X,X,X",
",X,X,X,X,X,X,X,X,X,Xn.x Z.I.~.:.t.A.^ W X o.$.$.+.o.|  .= @ ` V.v $ w e >.,X,X,X,X,X,X,X,X,X,X,X",
",X,X,X,X,X,X,X,X,X,X%X0 ] S.K.7.5.2.c R X | | +.X... .3 9 O E } S.x U @.|.,X,X,X,X,X,X,X,X,X,X,X",
",X,X,X,X,X,X,X,X,X,X,Xm.z N.C.,.$.-.i N o = < & < 2 @ U x.& 4 > t F %X,X,X,X,X,X,X,X,X,X,X,X,X,X",
",X,X,X,X,X,X,X,X,X,X,X,Xj.B A.r.%...m , O 4 >.p.9 O g.,Xb.2 r Y h.,X,X,X,X,X,X,X,X,X,X,X,X,X,X,X",
",X,X,X,X,X,X,X,X,X,X,X,X:Xi.M t...5 8 #.0 * h.`.% 9 '.[.[.Y y.#X,X,X,X,X,X,X,X,X,X,X,X,X,X,X,X,X",
",X,X,X,X,X,X,X,X,X,X,X,X,X:Xx.5 y t y.y.4 = w.#.@ 9 g.`.M.M.#X,X,X,X,X,X,X,X,X,X,X,X,X,X,X,X,X,X",
",X,X,X,X,X,X,X,X,X,X,X,X,X,X,Xp.- i.`.b.b.b.m.m.b.b.b.`.`.M.}.,X,X,X,X,X,X,X,X,X,X,X,X,X,X,X,X,X",
",X,X,X,X,X,X,X,X,X,X,X,X,X,X,X:X].'.M.M.M.`.`.m.M.`.m.M.`.'.;X,X,X,X,X,X,X,X,X,X,X,X,X,X,X,X,X,X",
",X,X,X,X,X,X,X,X,X,X,X,X,X,X,X,X,X:X%X X].`.`.`.`.M.|.|.&X:X,X,X,X,X,X,X,X,X,X,X,X,X,X,X,X,X,X,X",
",X,X,X,X,X,X,X,X,X,X,X,X,X,X,X,X,X,X,X,X,X:X>X,X,X,X,X,X,X,X,X,X,X,X,X,X,X,X,X,X,X,X,X,X,X,X,X,X",
",X,X,X,X,X,X,X,X,X,X,X,X,X,X,X,X,X,X,X,X,X,X,X,X,X,X,X,X,X,X,X,X,X,X,X,X,X,X,X,X,X,X,X,X,X,X,X,X",
",X,X,X,X,X,X,X,X,X,X,X,X,X,X,X,X,X,X,X,X,X,X,X,X,X,X,X,X,X,X,X,X,X,X,X,X,X,X,X,X,X,X,X,X,X,X,X,X",
",X,X,X,X,X,X,X,X,X,X,X,X,X,X,X,X,X,X,X,X,X,X,X,X,X,X,X,X,X,X,X,X,X,X,X,X,X,X,X,X,X,X,X,X,X,X,X,X",
",X,X,X,X,X,X,X,X,X,X,X,X,X,X,X,X,X,X,X,X,X,X,X,X,X,X,X,X,X,X,X,X,X,X,X,X,X,X,X,X,X,X,X,X,X,X,X,X",
",X,X,X,X,X,X,X,X,X,X,X,X,X,X,X,X,X,X,X,X,X,X,X,X,X,X,X,X,X,X,X,X,X,X,X,X,X,X,X,X,X,X,X,X,X,X,X,X",
",X,X,X,X,X,X,X,X,X,X,X,X,X,X,X,X,X,X,X,X,X,X,X,X,X,X,X,X,X,X,X,X,X,X,X,X,X,X,X,X,X,X,X,X,X,X,X,X",
",X,X,X,X,X,X,X,X,X,X,X,X,X,X,X,X,X,X,X,X,X,X,X,X,X,X,X,X,X,X,X,X,X,X,X,X,X,X,X,X,X,X,X,X,X,X,X,X",
",X,X,X,X,X,X,X,X,X,X,X,X,X,X,X,X,X,X,X,X,X,X,X,X,X,X,X,X,X,X,X,X,X,X,X,X,X,X,X,X,X,X,X,X,X,X,X,X"
};