/* XPM */
static char *_d0d364b47984efff38eb13103765c14oFiF0QJe164IhYNx[] = {
/* columns rows colors chars-per-pixel */
"48 48 61 1 ",
"  c #17040C",
". c #18060E",
"X c #19080F",
"o c #1C0B12",
"O c #1E1217",
"+ c #1F1419",
"@ c #211017",
"# c #21161A",
"$ c #231A1E",
"% c #28191F",
"& c #241E20",
"* c #2A1D22",
"= c #262224",
"- c #2A2326",
"; c #2C2628",
": c #2B2A2B",
"> c #302228",
", c #322B2E",
"< c #332F31",
"1 c #343434",
"2 c #3A3335",
"3 c #3A3738",
"4 c #393839",
"5 c #3D383A",
"6 c #3E3B3C",
"7 c gray24",
"8 c #443B3F",
"9 c #433C3F",
"0 c #423F40",
"q c #443D40",
"w c gray25",
"e c #434343",
"r c #444243",
"t c #454344",
"y c #444444",
"u c gray28",
"i c #4B4447",
"p c #494949",
"a c gray29",
"s c #4C4C4C",
"d c #524C4E",
"f c #524C4F",
"g c #534E50",
"h c #554E51",
"j c gray32",
"k c #565153",
"l c #575254",
"z c #565656",
"x c gray34",
"c c #5A5557",
"v c #5A5558",
"b c #5A5A5A",
"n c #5D595B",
"m c #5E5B5C",
"M c #5D5D5D",
"N c #626262",
"B c gray39",
"V c gray40",
"C c DimGray",
"Z c #6F6F6F",
"A c #727272",
/* pixels */
"ANAANNzzz:,  nNAz#wb*o7pjb:oowMzyO,zzNNC. oAVC1o",
"zpppppppzzy.,zppz4ps;#yppNjOys1w7ppwpyss=ojspsN4",
"pppppppjsw4.ppppyypj:;ppppso,pzppspppppyo2pppyjs",
"ppbppppp71t wppppwp71;bppbpO;ppppppp7py:o-ppppp4",
"pppppbppppy.ypppppj1-&yppppOoppppppwpppp+2pppppp",
"Nyyppspppw1.Nppppps:=+1ywywO:psy4psppbyw&vbpsypp",
";zy;;;14:;+ 4Z;1;;=   o,O#O o:;44;;3;w;- +Vz;;;;",
"ooo.  oooX   ooooo..  oo......o.o. oooooooo ..oo",
"MpAV+-;Zpy1.9bZMMppAi*b141pyyy4yp7#VMpjpMpzf=ypz",
"pppC24Vspp4.7ppsppzM4opj7psppppsp4Oyjppsppp=4ppp",
"pppp,1ppppp.1ppppppy-#pppppppypp7oo1ppppppp$9ppp",
"zppp-wpppzp.4pppMppp: wpppppysppy= pppjsppp#9zpp",
"p7Np+wpppp4.yppppppp%#ypz4pjsppsp;opppwypp7$=yp7",
"1j4;.1yp4w;.;7pw;ypy;X:1sMw0y1y:;oo:7y;;y4;o#;Ms",
",-OO oOo+#  XOOOOOOO                            ",
"<vcc5okcvl5# Ogcvcg;&cc=f tcck=-ccvf: ovckkcvckg",
"jV4zwpppzypMo;;:ppp4zsb1;ojyswwzjpwpp2&4Mppppppp",
"Mpyyp44ypp44%jwpppppppC4j.Mpyyp:ypppy#*4pypypypp",
"jppppppw4N44%jwppwNyppyp;opppppppw4sy+*ypppwpzpp",
"@:wpppp41py4 4ppppNspppp= -4pppj7:wpp#+yppppyppy",
"6:;ppz;yppp; 4ppppjypwpp-.y;4pps1pppy+O7pwppzppM",
":ypp4yppppp;#yppppppppp4;X4pyw7yppppw+O7p4wppppb",
";;ppppppppy;o:p1ppppppN;;X;7pppppppp4+O;4;;ppppp",
"o;;:<<:1pwV .#y4;4y0yy;;X #;;::::77j1 .-;;;7w7:;",
" ooo. oo .o. .+.o.oo.  .ooo .ooooo  .o.oooo  o..",
"%AjC,#V7 :sz.My0zmAZ9o&zy74-177jbVo>NwyMZAZ,.V7O",
"zppybwsMowpw#zVppzppz8yp1wwppypsyj;-Cbpppppz%wM0",
"pppppypyoMppOwppppppy#4pjpppppppp7o&ppppppp7o7pM",
"pppppwp4o4zjo7ppppppyO=pppppppypw;+=yppsppp7oywp",
"spspppV:ors4 pppppppp#-pyyppwwpppp&%pppsppppojpp",
"zpp7ppp;o4ywoypp17pp4#-psk7pzspb74=-ppp:ppp4o4zp",
"c9====.  &-X.$-;==;=& o==;:oo;=3=# X=;;==;=# #36",
"hhqo  3hh9  *hh-h&2# Oi&-&&&&&2if.#h220hhf% 212h",
"psAwop4Npw=2sjVjzpMA*ss4wwpy7py4b$2ZjpspspVo4ppN",
"ppsCo7Nppp:;yppjppNw%1pNypsppppp7o,spppppp4.yppp",
"pppp.jppppr#ypppppp1o:ppppppp7pw:X-7pppppp4.pppp",
"ppppopjppzropppszpppoopwppppwpppyO#pppbpppp.pzpp",
"p1Nwoppypp;#pppppppp ;pb7:pyppNp4#;ppp:ppy4.;py1",
"wz;=o4wzs:#o;wp:;pw4oo1174,,4:y;& +;44;:4;& +7s:",
"@XX  .X.oX  XXXXXXX.                            ",
"ANAANNNNAAX  AMA7oVz &ypZ4, =CzM-OszzNAy  iZZb#=",
"ppppppppC74XyspsV,pzo:pppV7.bp4wppywys4M.:bspjwy",
"pppppppVw42-ppppsjppopppppy.ypVppjppppp4 ypppwyp",
"ppsppppyp4*#ppppp4p4opzppjy.3pppppppyp7; 7ppppyy",
"pppppspppp3-ppppppV;o4ppppy ,pwppppwpppw.ypppppp",
"N7ypspppp4-qbppyppp:o-74sy4.4pNwwp7ppNy4.Nsppppp",
";Z:1;;44;=ooMj;:;;o   ##o+o $11y1;,14y;+ :Z:<;;;",
"..ooooo.  ...........  oooo ooooo.  oooooo..oo.."
};